X: 3
T: The Twelve Pins
R: reel
M: 4/4
L: 1/8
K: Gmaj
B||:dBB2 dBGB|dAA2 dAFA|DEFG ABcA|defg afge|dBB2 dBGB|dAA2 dAFA|DEFG ABcA|1 dBcA G3B:||2 dBcA G3e|||:f2fe defg|addc dcAB|c2cB cdeg|aged caae|f2fe defg|addc dcAB|c2cB cBAB|1 cAFA G3e:||2 cAFA G3|


Tune 1333	Setting 1333

